;FLAVOR:Marlin
;TIME:2370
;Filament used: 2.31835m
;Layer height: 0.2
;Generated with Cura_SteamEngine 3.0.4
M190 S45
M104 S205
M109 S205
M82 ; absolute extrusion mode
;Basic settings: Layer height: 0.2 Walls: 2 Fill: {fill_density}
G21        			;metric values
G90        			;absolute positioning
M82        			;set extruder to absolute mode
M107       			;start with the fan off
T0			;set initial extruder
G28 X0 Y0  			;move X/Y to min endstops
G28 Z0     			;move Z to min endstops
G1 Z15.0 F12000                	;move the platform down 15mm
G92 E0             		;zero the extruded length
G1 F300 E30             	;extrude 30mm of feed stock
G92 E0                  	;zero the extruded length again
G1 F6000 E-1		;retract a bit the filament to allow cut
G92 E0			;zero the extruded length
G4 S3			;wait 3 seconds for extruded filament to cool down
G1 Y10 F7000		;exit from cleaning bay to cut the filament
G1 F12000
M117 Printing...
;LAYER_COUNT:75
;LAYER:0
M107
G0 F3600 X113.536 Y111.874 Z0.3
;TYPE:SKIRT
G1 F1650 X113.857 Y111.582 E0.02165
G1 X115.212 Y110.477 E0.10888
G1 X115.492 Y110.268 E0.12631
G1 X116.989 Y109.251 E0.2166
G1 X117.284 Y109.069 E0.23389
G1 X118.841 Y108.198 E0.3229
G1 X119.154 Y108.04 E0.34039
G1 X120.774 Y107.312 E0.429
G1 X121.145 Y107.168 E0.44886
G1 X123.25 Y106.464 E0.55959
G1 X123.617 Y106.36 E0.57862
G1 X125.354 Y105.958 E0.66757
G1 X125.642 Y105.902 E0.68221
G1 X126.974 Y105.695 E0.74946
G1 X127.294 Y105.659 E0.76553
G1 X129.099 Y105.526 E0.85582
G1 X129.451 Y105.515 E0.87339
G1 X131.256 Y105.541 E0.96346
G1 X131.605 Y105.562 E0.9809
G1 X133.395 Y105.745 E1.07067
G1 X133.789 Y105.805 E1.09055
G1 X135.931 Y106.243 E1.19963
G1 X136.3 Y106.337 E1.21862
G1 X137.99 Y106.854 E1.3068
G1 X138.262 Y106.948 E1.32115
G1 X139.543 Y107.443 E1.38967
G1 X139.922 Y107.613 E1.41039
G1 X142.323 Y108.841 E1.54494
G1 X142.698 Y109.059 E1.56658
G1 X144.178 Y110.031 E1.65491
G1 X144.46 Y110.234 E1.67225
G1 X145.869 Y111.346 E1.7618
G1 X146.199 Y111.637 E1.78375
G1 X148.126 Y113.536 E1.91873
G1 X148.418 Y113.857 E1.94038
G1 X149.523 Y115.212 E2.02761
G1 X149.732 Y115.492 E2.04504
G1 X150.749 Y116.989 E2.13533
G1 X150.931 Y117.284 E2.15262
G1 X151.802 Y118.841 E2.24163
G1 X151.961 Y119.157 E2.25928
G1 X152.694 Y120.791 E2.34862
G1 X152.822 Y121.114 E2.36596
G1 X153.411 Y122.808 E2.45544
G1 X153.531 Y123.224 E2.47704
G1 X154.132 Y125.833 E2.61061
G1 X154.216 Y126.356 E2.63703
G1 X154.467 Y129.018 E2.77043
G1 X154.485 Y129.451 E2.79205
G1 X154.459 Y131.256 E2.88211
G1 X154.438 Y131.605 E2.89956
G1 X154.255 Y133.395 E2.98933
G1 X154.204 Y133.743 E3.00687
G1 X153.87 Y135.48 E3.09512
G1 X153.767 Y135.897 E3.11655
G1 X152.986 Y138.446 E3.24956
G1 X152.8 Y138.935 E3.27566
G1 X151.695 Y141.355 E3.40838
G1 X151.448 Y141.814 E3.43439
G1 X150.018 Y144.102 E3.569
G1 X149.766 Y144.46 E3.59084
G1 X148.654 Y145.869 E3.68039
G1 X148.363 Y146.199 E3.70234
G1 X146.464 Y148.126 E3.83731
G1 X146.143 Y148.418 E3.85896
G1 X144.788 Y149.523 E3.94619
G1 X144.508 Y149.732 E3.96363
G1 X143.011 Y150.749 E4.05392
G1 X142.716 Y150.931 E4.07121
G1 X141.159 Y151.802 E4.16022
G1 X140.846 Y151.96 E4.17771
G1 X139.226 Y152.688 E4.26632
G1 X138.855 Y152.832 E4.28617
G1 X136.75 Y153.536 E4.39691
G1 X136.346 Y153.648 E4.41782
G1 X134.133 Y154.138 E4.53091
G1 X133.729 Y154.206 E4.55134
G1 X131.944 Y154.413 E4.641
G1 X131.601 Y154.438 E4.65815
G1 X129.832 Y154.49 E4.74645
G1 X129.486 Y154.486 E4.76371
G1 X127.716 Y154.385 E4.85216
G1 X127.379 Y154.351 E4.86906
G1 X125.76 Y154.12 E4.95065
G1 X125.434 Y154.06 E4.96719
G1 X123.687 Y153.661 E5.05659
G1 X123.343 Y153.565 E5.07441
G1 X121.483 Y152.961 E5.17197
G1 X121.054 Y152.794 E5.19494
G1 X118.606 Y151.674 E5.32925
G1 X118.22 Y151.472 E5.35098
G1 X116.684 Y150.555 E5.44023
G1 X116.394 Y150.364 E5.45755
G1 X114.959 Y149.329 E5.54583
G1 X114.619 Y149.055 E5.56761
G1 X112.633 Y147.263 E5.70107
G1 X112.271 Y146.89 E5.727
G1 X110.535 Y144.857 E5.86037
G1 X110.268 Y144.508 E5.88229
G1 X109.251 Y143.011 E5.97258
G1 X109.069 Y142.716 E5.98988
G1 X108.198 Y141.159 E6.07888
G1 X108.04 Y140.846 E6.09638
G1 X107.312 Y139.226 E6.18498
G1 X107.168 Y138.855 E6.20484
G1 X106.464 Y136.75 E6.31558
G1 X106.36 Y136.383 E6.33461
G1 X105.958 Y134.646 E6.42356
G1 X105.902 Y134.358 E6.43819
G1 X105.695 Y133.026 E6.50545
G1 X105.659 Y132.704 E6.52161
G1 X105.526 Y130.884 E6.61265
G1 X105.515 Y130.534 E6.63012
G1 X105.541 Y128.744 E6.71944
G1 X105.562 Y128.395 E6.73688
G1 X105.745 Y126.605 E6.82665
G1 X105.805 Y126.211 E6.84653
G1 X106.243 Y124.069 E6.95561
G1 X106.337 Y123.7 E6.9746
G1 X106.854 Y122.01 E7.06278
G1 X106.948 Y121.738 E7.07713
G1 X107.443 Y120.457 E7.14565
G1 X107.613 Y120.078 E7.16637
G1 X108.841 Y117.677 E7.30092
G1 X109.059 Y117.302 E7.32256
G1 X110.031 Y115.822 E7.41089
G1 X110.234 Y115.54 E7.42823
G1 X111.346 Y114.131 E7.51778
G1 X111.637 Y113.801 E7.53973
G1 X113.536 Y111.874 E7.67471
G0 F3600 X113.821 Y112.155
G1 F1650 X114.11 Y111.892 E7.6942
G1 X115.465 Y110.787 E7.78143
G1 X115.717 Y110.599 E7.79712
G1 X117.214 Y109.582 E7.88741
G1 X117.479 Y109.418 E7.90296
G1 X119.036 Y108.547 E7.99196
G1 X119.318 Y108.405 E8.00771
G1 X120.938 Y107.677 E8.09632
G1 X121.272 Y107.547 E8.1142
G1 X123.377 Y106.843 E8.22494
G1 X123.707 Y106.75 E8.24205
G1 X125.444 Y106.348 E8.33099
G1 X125.703 Y106.298 E8.34416
G1 X127.035 Y106.091 E8.41141
G1 X127.323 Y106.058 E8.42587
G1 X129.128 Y105.925 E8.51616
G1 X129.445 Y105.915 E8.53199
G1 X131.25 Y105.941 E8.62205
G1 X131.564 Y105.96 E8.63774
G1 X133.354 Y106.143 E8.72751
G1 X133.709 Y106.197 E8.74543
G1 X135.851 Y106.635 E8.8545
G1 X136.183 Y106.719 E8.87159
G1 X137.873 Y107.236 E8.95976
G1 X138.118 Y107.321 E8.9727
G1 X139.399 Y107.816 E9.04121
G1 X139.74 Y107.969 E9.05986
G1 X142.141 Y109.197 E9.1944
G1 X142.478 Y109.393 E9.21385
G1 X143.958 Y110.365 E9.30219
G1 X144.212 Y110.548 E9.31781
G1 X145.621 Y111.66 E9.40736
G1 X145.918 Y111.922 E9.42712
G1 X147.845 Y113.821 E9.56209
G1 X148.108 Y114.11 E9.58159
G1 X149.213 Y115.465 E9.66882
G1 X149.401 Y115.717 E9.68451
G1 X150.418 Y117.214 E9.7748
G1 X150.582 Y117.479 E9.79034
G1 X151.453 Y119.036 E9.87935
G1 X151.596 Y119.321 E9.89526
G1 X152.329 Y120.955 E9.98461
G1 X152.444 Y121.246 E10.00022
G1 X153.033 Y122.94 E10.08969
G1 X153.141 Y123.314 E10.10912
G1 X153.742 Y125.923 E10.24269
G1 X153.818 Y126.393 E10.26644
G1 X154.069 Y129.055 E10.39984
G1 X154.085 Y129.445 E10.41931
G1 X154.059 Y131.25 E10.50937
G1 X154.04 Y131.564 E10.52507
G1 X153.857 Y133.354 E10.61484
G1 X153.811 Y133.668 E10.63067
G1 X153.477 Y135.405 E10.71891
G1 X153.384 Y135.78 E10.73819
G1 X152.603 Y138.329 E10.8712
G1 X152.436 Y138.769 E10.89468
G1 X151.331 Y141.189 E11.0274
G1 X151.109 Y141.602 E11.05079
G1 X149.679 Y143.89 E11.1854
G1 X149.452 Y144.212 E11.20506
G1 X148.34 Y145.621 E11.29461
G1 X148.078 Y145.918 E11.31437
G1 X146.179 Y147.845 E11.44934
G1 X145.89 Y148.108 E11.46884
G1 X144.535 Y149.213 E11.55607
G1 X144.283 Y149.401 E11.57175
G1 X142.786 Y150.418 E11.66204
G1 X142.521 Y150.582 E11.67759
G1 X140.964 Y151.453 E11.7666
G1 X140.682 Y151.595 E11.78235
G1 X139.062 Y152.323 E11.87096
G1 X138.728 Y152.453 E11.88884
G1 X136.623 Y153.157 E11.99958
G1 X136.259 Y153.258 E12.01842
G1 X134.046 Y153.748 E12.1315
G1 X133.683 Y153.809 E12.14987
G1 X131.898 Y154.016 E12.23952
G1 X131.589 Y154.038 E12.25497
G1 X129.82 Y154.09 E12.34327
G1 X129.509 Y154.086 E12.35878
G1 X127.739 Y153.985 E12.44723
G1 X127.435 Y153.955 E12.46247
G1 X125.816 Y153.724 E12.54406
G1 X125.523 Y153.67 E12.55893
G1 X123.776 Y153.271 E12.64833
G1 X123.466 Y153.185 E12.66438
G1 X121.606 Y152.581 E12.76195
G1 X121.22 Y152.431 E12.78261
G1 X118.772 Y151.311 E12.91691
G1 X118.425 Y151.128 E12.93649
G1 X116.889 Y150.211 E13.02574
G1 X116.628 Y150.04 E13.0413
G1 X115.193 Y149.005 E13.12957
G1 X114.887 Y148.758 E13.14919
G1 X112.901 Y146.966 E13.28265
G1 X112.575 Y146.631 E13.30597
G1 X110.839 Y144.598 E13.43934
G1 X110.599 Y144.283 E13.4591
G1 X109.582 Y142.786 E13.54939
G1 X109.418 Y142.521 E13.56494
G1 X108.547 Y140.964 E13.65394
G1 X108.405 Y140.682 E13.6697
G1 X107.677 Y139.062 E13.7583
G1 X107.547 Y138.728 E13.77619
G1 X106.843 Y136.623 E13.88692
G1 X106.75 Y136.293 E13.90403
G1 X106.348 Y134.556 E13.99298
G1 X106.298 Y134.297 E14.00614
G1 X106.091 Y132.965 E14.07339
G1 X106.058 Y132.674 E14.088
G1 X105.925 Y130.854 E14.17904
G1 X105.915 Y130.54 E14.19472
G1 X105.941 Y128.75 E14.28403
G1 X105.96 Y128.436 E14.29972
G1 X106.143 Y126.646 E14.38949
G1 X106.197 Y126.291 E14.40741
G1 X106.635 Y124.149 E14.51648
G1 X106.719 Y123.817 E14.53357
G1 X107.236 Y122.127 E14.62174
G1 X107.321 Y121.882 E14.63468
G1 X107.816 Y120.601 E14.70319
G1 X107.969 Y120.26 E14.72184
G1 X109.197 Y117.859 E14.85638
G1 X109.393 Y117.522 E14.87583
G1 X110.365 Y116.042 E14.96417
G1 X110.548 Y115.788 E14.97979
G1 X111.66 Y114.379 E15.06934
G1 X111.922 Y114.082 E15.0891
G1 X113.821 Y112.155 E15.22407
G0 F3600 X114.106 Y112.436
G1 F1650 X114.363 Y112.202 E15.24141
G1 X115.718 Y111.097 E15.32864
G1 X115.942 Y110.93 E15.34258
G1 X117.439 Y109.913 E15.43287
G1 X117.675 Y109.767 E15.44672
G1 X119.232 Y108.896 E15.53573
G1 X119.482 Y108.77 E15.54969
G1 X121.102 Y108.042 E15.6383
G1 X121.399 Y107.926 E15.65421
G1 X123.504 Y107.222 E15.76495
G1 X123.797 Y107.139 E15.78014
G1 X125.534 Y106.737 E15.86909
G1 X125.765 Y106.693 E15.88082
G1 X127.097 Y106.486 E15.94807
G1 X127.353 Y106.457 E15.96093
G1 X129.158 Y106.324 E16.05122
G1 X129.439 Y106.315 E16.06525
G1 X131.244 Y106.341 E16.15531
G1 X131.523 Y106.358 E16.16925
G1 X133.313 Y106.541 E16.25902
G1 X133.629 Y106.589 E16.27497
G1 X135.771 Y107.027 E16.38405
G1 X136.066 Y107.102 E16.39923
G1 X137.756 Y107.619 E16.4874
G1 X137.973 Y107.694 E16.49886
G1 X139.254 Y108.189 E16.56737
G1 X139.558 Y108.325 E16.58399
G1 X141.959 Y109.553 E16.71853
G1 X142.259 Y109.727 E16.73583
G1 X143.739 Y110.699 E16.82417
G1 X143.964 Y110.862 E16.83803
G1 X145.373 Y111.974 E16.92758
G1 X145.637 Y112.207 E16.94515
G1 X147.564 Y114.106 E17.08013
G1 X147.798 Y114.363 E17.09747
G1 X148.903 Y115.718 E17.1847
G1 X149.07 Y115.942 E17.19864
G1 X150.087 Y117.439 E17.28893
G1 X150.233 Y117.675 E17.30277
G1 X151.104 Y119.232 E17.39178
G1 X151.231 Y119.484 E17.40586
G1 X151.964 Y121.118 E17.4952
G1 X152.067 Y121.377 E17.50911
G1 X152.656 Y123.071 E17.59859
G1 X152.751 Y123.404 E17.61586
G1 X153.352 Y126.013 E17.74944
G1 X153.42 Y126.431 E17.77056
G1 X153.671 Y129.093 E17.90396
G1 X153.685 Y129.439 E17.92124
G1 X153.659 Y131.244 E18.0113
G1 X153.642 Y131.523 E18.02524
G1 X153.459 Y133.313 E18.11501
G1 X153.418 Y133.592 E18.12908
G1 X153.084 Y135.329 E18.21733
G1 X153.002 Y135.662 E18.23444
G1 X152.221 Y138.211 E18.36744
G1 X152.072 Y138.603 E18.38837
G1 X150.967 Y141.023 E18.52109
G1 X150.77 Y141.39 E18.54187
G1 X149.34 Y143.678 E18.67648
G1 X149.138 Y143.964 E18.69395
G1 X148.026 Y145.373 E18.7835
G1 X147.793 Y145.637 E18.80107
G1 X145.894 Y147.564 E18.93604
G1 X145.637 Y147.798 E18.95338
G1 X144.282 Y148.903 E19.04061
G1 X144.058 Y149.07 E19.05455
G1 X142.561 Y150.087 E19.14484
G1 X142.325 Y150.233 E19.15869
G1 X140.768 Y151.104 E19.2477
G1 X140.518 Y151.23 E19.26166
G1 X138.898 Y151.958 E19.35027
G1 X138.601 Y152.074 E19.36618
G1 X136.496 Y152.778 E19.47691
G1 X136.173 Y152.867 E19.49363
G1 X133.96 Y153.357 E19.60671
G1 X133.637 Y153.412 E19.62306
G1 X131.852 Y153.619 E19.71271
G1 X131.577 Y153.639 E19.72646
G1 X129.808 Y153.691 E19.81476
G1 X129.532 Y153.687 E19.82853
G1 X127.762 Y153.586 E19.91698
G1 X127.492 Y153.559 E19.93052
G1 X125.873 Y153.328 E20.01211
G1 X125.612 Y153.28 E20.02535
G1 X123.865 Y152.881 E20.11475
G1 X123.59 Y152.805 E20.12898
G1 X121.73 Y152.201 E20.22655
G1 X121.387 Y152.067 E20.24492
G1 X118.939 Y150.947 E20.37923
G1 X118.63 Y150.785 E20.39663
G1 X117.094 Y149.868 E20.48588
G1 X116.862 Y149.715 E20.49975
G1 X115.427 Y148.68 E20.58802
G1 X115.155 Y148.461 E20.60544
G1 X113.169 Y146.669 E20.73889
G1 X112.879 Y146.371 E20.75964
G1 X111.143 Y144.338 E20.89301
G1 X110.93 Y144.058 E20.91057
G1 X109.913 Y142.561 E21.00086
G1 X109.767 Y142.325 E21.0147
G1 X108.896 Y140.768 E21.10371
G1 X108.77 Y140.518 E21.11768
G1 X108.042 Y138.898 E21.20628
G1 X107.926 Y138.601 E21.22219
G1 X107.222 Y136.496 E21.33293
G1 X107.139 Y136.203 E21.34812
G1 X106.737 Y134.466 E21.43707
G1 X106.693 Y134.235 E21.4488
G1 X106.486 Y132.903 E21.51605
G1 X106.457 Y132.645 E21.52901
G1 X106.324 Y130.825 E21.62005
G1 X106.315 Y130.546 E21.63397
G1 X106.341 Y128.756 E21.72329
G1 X106.358 Y128.477 E21.73723
G1 X106.541 Y126.687 E21.827
G1 X106.589 Y126.371 E21.84295
G1 X107.027 Y124.229 E21.95202
G1 X107.102 Y123.934 E21.96721
G1 X107.619 Y122.244 E22.05538
G1 X107.694 Y122.027 E22.06684
G1 X108.189 Y120.746 E22.13535
G1 X108.325 Y120.442 E22.15197
G1 X109.553 Y118.041 E22.28651
G1 X109.727 Y117.741 E22.30381
G1 X110.699 Y116.261 E22.39215
G1 X110.862 Y116.036 E22.40601
G1 X111.974 Y114.627 E22.49556
G1 X112.207 Y114.363 E22.51313
G1 X114.106 Y112.436 E22.64811
G1 F2400 E22.14811
G0 F3600 X115.771 Y114.335
G0 X116.606 Y115.285
G0 X117.357 Y116.223
;TYPE:WALL-INNER
G1 F2400 E22.64811
G1 F1650 X117.927 Y115.722 E22.68597
G1 X117.958 Y115.695 E22.68802
G1 X118.549 Y115.22 E22.72585
G1 X118.607 Y115.173 E22.72957
G1 X119.194 Y114.742 E22.7659
G1 X119.286 Y114.675 E22.77158
G1 X119.858 Y114.294 E22.80587
G1 X119.955 Y114.229 E22.81169
G1 X120.644 Y113.81 E22.85192
G1 X121.37 Y113.411 E22.89325
G1 X122.116 Y113.044 E22.93473
G1 X122.577 Y112.841 E22.95986
G1 X122.816 Y112.735 E22.97291
G1 X123.607 Y112.427 E23.01526
G1 X124.384 Y112.163 E23.0562
G1 X125.13 Y111.946 E23.09496
G1 X125.388 Y111.883 E23.10821
G1 X125.982 Y111.738 E23.13871
G1 X126.75 Y111.585 E23.17778
G1 X127.523 Y111.465 E23.21681
G1 X128.342 Y111.377 E23.2579
G1 X128.398 Y111.37 E23.26072
G1 X129.143 Y111.322 E23.29796
G1 X129.166 Y111.32 E23.29912
G1 X129.942 Y111.302 E23.33784
G1 X130 Y111.3 E23.34074
G1 X130.745 Y111.317 E23.37792
G1 X130.834 Y111.32 E23.38236
G1 X131.55 Y111.366 E23.41815
G1 X131.602 Y111.37 E23.42075
G1 X132.344 Y111.45 E23.45799
G1 X132.477 Y111.465 E23.46467
G1 X133.137 Y111.567 E23.49798
G1 X133.25 Y111.585 E23.50369
G1 X133.923 Y111.719 E23.53793
G1 X134.018 Y111.738 E23.54276
G1 X134.705 Y111.905 E23.57803
G1 X134.87 Y111.946 E23.58652
G1 X135.478 Y112.123 E23.61811
G1 X135.616 Y112.163 E23.62528
G1 X136.238 Y112.374 E23.65805
G1 X136.393 Y112.427 E23.66622
G1 X136.991 Y112.66 E23.69824
G1 X137.184 Y112.735 E23.70857
G1 X137.73 Y112.976 E23.73834
G1 X137.884 Y113.044 E23.74674
G1 X138.449 Y113.322 E23.77816
G1 X138.63 Y113.411 E23.78822
G1 X139.156 Y113.7 E23.81816
G1 X139.356 Y113.81 E23.82955
G1 X139.849 Y114.109 E23.85832
G1 X140.045 Y114.229 E23.86978
G1 X140.519 Y114.545 E23.8982
G1 X140.707 Y114.67 E23.90947
G1 X141.172 Y115.011 E23.93823
G1 X141.408 Y115.184 E23.95283
G1 X141.808 Y115.506 E23.97845
G1 X142.028 Y115.683 E23.99254
G1 X142.656 Y116.235 E24.03425
G1 X143.195 Y116.75 E24.07144
G1 X143.58 Y117.151 E24.09918
G1 X143.777 Y117.357 E24.1134
G1 X144.025 Y117.64 E24.13217
G1 X144.3 Y117.952 E24.15292
G1 X144.827 Y118.607 E24.19486
G1 X145.325 Y119.286 E24.23687
G1 X145.759 Y119.935 E24.27582
G1 X145.81 Y120.019 E24.28073
G1 X146.206 Y120.671 E24.31879
G1 X146.569 Y121.33 E24.35632
G1 X146.936 Y122.075 E24.39775
G1 X146.96 Y122.124 E24.40048
G1 X147.199 Y122.668 E24.43012
G1 X147.261 Y122.808 E24.43776
G1 X147.497 Y123.414 E24.4702
G1 X147.58 Y123.626 E24.48156
G1 X147.765 Y124.173 E24.51037
G1 X147.828 Y124.357 E24.52007
G1 X147.998 Y124.94 E24.55037
G1 X148.071 Y125.19 E24.56337
G1 X148.199 Y125.712 E24.59018
G1 X148.25 Y125.916 E24.60067
G1 X148.367 Y126.5 E24.63039
G1 X148.417 Y126.75 E24.6431
G1 X148.499 Y127.292 E24.67045
G1 X148.534 Y127.518 E24.68186
G1 X148.596 Y128.087 E24.71042
G1 X148.63 Y128.398 E24.72603
G1 X148.662 Y128.886 E24.75043
G1 X148.68 Y129.157 E24.76398
G1 X148.693 Y129.687 E24.79043
G1 X148.7 Y129.96 E24.80405
G1 X148.688 Y130.493 E24.83065
G1 X148.68 Y130.837 E24.84781
G1 X148.651 Y131.291 E24.87051
G1 X148.631 Y131.593 E24.88561
G1 X148.577 Y132.091 E24.9106
