;FLAVOR:Marlin
;TIME:1078
;Filament used: 1.16715m
;Layer height: 0.2
;Generated with Cura_SteamEngine 3.0.4
M190 S45
M104 S205
M109 S205
M82 ; absolute extrusion mode
;Basic settings: Layer height: 0.2 Walls: 2 Fill: {fill_density}
G21        			;metric values
G90        			;absolute positioning
M82        			;set extruder to absolute mode
M107       			;start with the fan off
T0			;set initial extruder
G28 X0 Y0  			;move X/Y to min endstops
G28 Z0     			;move Z to min endstops
G1 Z15.0 F12000                	;move the platform down 15mm
G92 E0             		;zero the extruded length
G1 F300 E30             	;extrude 30mm of feed stock
G92 E0                  	;zero the extruded length again
G1 F6000 E-1		;retract a bit the filament to allow cut
G92 E0			;zero the extruded length
G4 S3			;wait 3 seconds for extruded filament to cool down
G1 Y10 F7000		;exit from cleaning bay to cut the filament
G1 F12000
M117 Printing...
;LAYER_COUNT:88
;LAYER:0
M107
G0 F3600 X112.649 Y121.676 Z0.3
;TYPE:SKIRT
G1 F1650 X113.264 Y121.11 E0.0417
G1 X114.135 Y120.434 E0.09671
G1 X114.79 Y120.004 E0.1358
G1 X115.644 Y119.534 E0.18443
G1 X116.299 Y119.233 E0.22039
G1 X117.216 Y118.889 E0.26925
G1 X117.808 Y118.707 E0.30015
G1 X118.468 Y118.549 E0.33401
G1 X119.114 Y118.439 E0.3667
G1 X120.142 Y118.332 E0.41827
G1 X120.659 Y118.305 E0.4441
G1 X133.879 Y118.302 E1.10365
G1 X134.51 Y118.342 E1.13519
G1 X135.131 Y118.461 E1.16673
G1 X135.339 Y118.529 E1.17765
G1 X135.434 Y118.495 E1.18269
G1 X136.052 Y118.359 E1.21426
G1 X136.813 Y118.301 E1.25233
G1 X138.788 Y118.301 E1.35087
G1 X139.419 Y118.341 E1.38241
G1 X140.04 Y118.46 E1.41396
G1 X140.164 Y118.501 E1.42047
G1 X141.528 Y118.5 E1.48852
G1 X141.948 Y118.391 E1.51017
G1 X142.575 Y118.31 E1.54171
G1 X142.897 Y118.3 E1.55778
G1 X143.756 Y118.3 E1.60064
G1 X144.387 Y118.34 E1.63218
G1 X145.008 Y118.459 E1.66373
G1 X145.608 Y118.656 E1.69523
G1 X146.18 Y118.927 E1.72681
G1 X146.712 Y119.267 E1.75831
G1 X147.292 Y119.764 E1.79642
G1 X147.443 Y119.915 E1.80707
G1 X147.86 Y120.39 E1.83861
G1 X148.215 Y120.913 E1.87014
G1 X148.501 Y121.477 E1.90169
G1 X148.713 Y122.072 E1.9332
G1 X148.849 Y122.69 E1.96477
G1 X148.907 Y123.449 E2.00275
G1 X148.908 Y125.547 E2.10742
G1 X148.868 Y126.178 E2.13896
G1 X148.749 Y126.798 E2.17046
G1 X148.553 Y127.399 E2.202
G1 X148.282 Y127.971 E2.23358
G1 X147.942 Y128.503 E2.26508
G1 X147.444 Y129.085 E2.30329
G1 X147.293 Y129.236 E2.31394
G1 X146.818 Y129.653 E2.34548
G1 X146.355 Y129.967 E2.37339
G1 X146.512 Y130.067 E2.38268
G1 X147.092 Y130.564 E2.42078
G1 X147.443 Y130.915 E2.44555
G1 X147.86 Y131.39 E2.47708
G1 X148.215 Y131.913 E2.50862
G1 X148.501 Y132.477 E2.54017
G1 X148.713 Y133.072 E2.57168
G1 X148.849 Y133.69 E2.60325
G1 X148.907 Y134.449 E2.64123
G1 X148.908 Y136.547 E2.7459
G1 X148.868 Y137.178 E2.77744
G1 X148.749 Y137.798 E2.80894
G1 X148.553 Y138.399 E2.84047
G1 X148.282 Y138.971 E2.87205
G1 X147.942 Y139.503 E2.90355
G1 X147.444 Y140.085 E2.94177
G1 X147.293 Y140.236 E2.95242
G1 X146.818 Y140.653 E2.98395
G1 X146.295 Y141.008 E3.01549
G1 X145.731 Y141.294 E3.04704
G1 X145.136 Y141.506 E3.07855
G1 X144.518 Y141.642 E3.11012
G1 X143.757 Y141.7 E3.1482
G1 X142.898 Y141.7 E3.19105
G1 X142.267 Y141.66 E3.2226
G1 X141.646 Y141.541 E3.25414
G1 X141.521 Y141.5 E3.26071
G1 X140.166 Y141.5 E3.32831
G1 X139.667 Y141.622 E3.35394
G1 X138.789 Y141.7 E3.39791
G1 X136.814 Y141.7 E3.49645
G1 X136.183 Y141.66 E3.52799
G1 X135.562 Y141.541 E3.55954
G1 X135.357 Y141.474 E3.57029
G1 X134.747 Y141.623 E3.60162
G1 X133.86 Y141.7 E3.64604
G1 X120.209 Y141.666 E4.3271
G1 X119.325 Y141.585 E4.37138
G1 X118.199 Y141.38 E4.42848
G1 X117.405 Y141.167 E4.4695
G1 X116.386 Y140.801 E4.52351
G1 X115.806 Y140.55 E4.55504
G1 X115.494 Y140.377 E4.57284
G1 X114.149 Y139.566 E4.6512
G1 X113.63 Y139.206 E4.68271
G1 X113.328 Y138.947 E4.70256
G1 X112.499 Y138.177 E4.75901
G1 X111.929 Y137.55 E4.80128
G1 X111.255 Y136.668 E4.85666
G1 X110.812 Y135.977 E4.89761
G1 X110.257 Y134.932 E4.95665
G1 X109.997 Y134.356 E4.98817
G1 X109.872 Y133.983 E5.0078
G1 X109.449 Y132.528 E5.0834
G1 X109.283 Y131.707 E5.12518
G1 X109.196 Y130.955 E5.16295
G1 X109.168 Y130.166 E5.20234
G1 X109.223 Y128.881 E5.26651
G1 X109.339 Y128.002 E5.31074
G1 X109.598 Y126.846 E5.36984
G1 X109.803 Y126.163 E5.40542
G1 X110.02 Y125.592 E5.4359
G1 X110.394 Y124.817 E5.47883
G1 X110.727 Y124.256 E5.51138
G1 X110.726 Y124.256 E5.51143
G1 X111.237 Y123.381 E5.56198
G1 X111.59 Y122.857 E5.5935
G1 X111.874 Y122.519 E5.61553
G1 X112.649 Y121.676 E5.67266
G0 F3600 X112.944 Y121.947
G1 F1650 X113.51 Y121.426 E5.71103
G1 X114.381 Y120.75 E5.76604
G1 X114.983 Y120.354 E5.80199
G1 X115.837 Y119.884 E5.85062
G1 X116.439 Y119.607 E5.88368
G1 X117.356 Y119.263 E5.93255
G1 X117.901 Y119.096 E5.96098
G1 X118.561 Y118.938 E5.99484
G1 X119.156 Y118.837 E6.02495
G1 X120.184 Y118.73 E6.07652
G1 X120.659 Y118.705 E6.10025
G1 X133.879 Y118.702 E6.7598
G1 X134.484 Y118.742 E6.79004
G1 X135.078 Y118.861 E6.82027
G1 X135.345 Y118.952 E6.83434
G1 X135.64 Y118.853 E6.84987
G1 X136.235 Y118.737 E6.88011
G1 X136.813 Y118.701 E6.909
G1 X138.788 Y118.701 E7.00753
G1 X139.393 Y118.741 E7.03778
G1 X139.987 Y118.86 E7.06801
G1 X140.106 Y118.901 E7.07429
G1 X141.578 Y118.9 E7.14773
G1 X141.698 Y118.859 E7.15405
G1 X142.293 Y118.74 E7.18432
G1 X142.897 Y118.7 E7.21452
G1 X143.756 Y118.7 E7.25738
G1 X144.361 Y118.74 E7.28763
G1 X144.955 Y118.859 E7.31785
G1 X145.529 Y119.055 E7.34811
G1 X146.072 Y119.326 E7.37839
G1 X146.575 Y119.665 E7.40865
G1 X147.009 Y120.047 E7.4375
G1 X147.16 Y120.198 E7.44815
G1 X147.559 Y120.654 E7.47838
G1 X147.895 Y121.159 E7.50864
G1 X148.162 Y121.703 E7.53888
G1 X148.355 Y122.278 E7.56914
G1 X148.471 Y122.873 E7.59938
G1 X148.507 Y123.449 E7.62817
G1 X148.508 Y125.547 E7.73284
G1 X148.468 Y126.152 E7.76309
G1 X148.349 Y126.746 E7.79331
G1 X148.153 Y127.32 E7.82357
G1 X147.884 Y127.863 E7.85381
G1 X147.545 Y128.366 E7.88407
G1 X147.161 Y128.802 E7.91305
G1 X147.01 Y128.953 E7.92371
G1 X146.554 Y129.352 E7.95394
G1 X146.049 Y129.688 E7.9842
G1 X145.517 Y129.949 E8.01376
G1 X145.872 Y130.126 E8.03355
G1 X146.375 Y130.465 E8.06382
G1 X146.809 Y130.847 E8.09266
G1 X147.16 Y131.198 E8.11743
G1 X147.559 Y131.654 E8.14766
G1 X147.895 Y132.159 E8.17792
G1 X148.162 Y132.703 E8.20815
G1 X148.355 Y133.278 E8.23841
G1 X148.471 Y133.873 E8.26865
G1 X148.507 Y134.449 E8.29745
G1 X148.508 Y136.547 E8.40212
G1 X148.468 Y137.152 E8.43237
G1 X148.349 Y137.746 E8.46259
G1 X148.153 Y138.32 E8.49285
G1 X147.884 Y138.863 E8.52308
G1 X147.545 Y139.366 E8.55334
G1 X147.161 Y139.802 E8.58233
G1 X147.01 Y139.953 E8.59298
G1 X146.554 Y140.352 E8.62321
G1 X146.049 Y140.688 E8.65347
G1 X145.505 Y140.955 E8.68371
G1 X144.93 Y141.148 E8.71397
G1 X144.335 Y141.264 E8.74421
G1 X143.757 Y141.3 E8.7731
G1 X142.898 Y141.3 E8.81596
G1 X142.293 Y141.26 E8.84621
G1 X141.699 Y141.141 E8.87643
G1 X141.579 Y141.1 E8.88276
G1 X140.099 Y141.1 E8.9566
G1 X139.899 Y141.164 E8.96707
G1 X139.302 Y141.271 E8.99733
G1 X138.789 Y141.3 E9.02297
G1 X136.814 Y141.3 E9.1215
G1 X136.209 Y141.26 E9.15175
G1 X135.615 Y141.141 E9.18197
G1 X135.343 Y141.048 E9.19631
G1 X135.003 Y141.159 E9.21416
G1 X134.407 Y141.269 E9.24439
G1 X133.861 Y141.3 E9.27168
G1 X120.21 Y141.266 E9.95273
G1 X119.397 Y141.192 E9.99346
G1 X118.271 Y140.987 E10.05056
G1 X117.54 Y140.79 E10.08833
G1 X116.521 Y140.424 E10.14235
G1 X115.701 Y140.034 E10.18765
G1 X114.356 Y139.223 E10.26601
G1 X113.858 Y138.877 E10.29626
G1 X113.6 Y138.654 E10.31327
G1 X112.771 Y137.884 E10.36972
G1 X112.247 Y137.307 E10.40861
G1 X111.573 Y136.425 E10.46399
G1 X111.165 Y135.79 E10.50164
G1 X110.61 Y134.745 E10.56067
G1 X110.362 Y134.192 E10.59091
G1 X110.256 Y133.871 E10.60778
G1 X109.833 Y132.416 E10.68337
G1 X109.68 Y131.661 E10.72181
G1 X109.593 Y130.909 E10.75957
G1 X109.567 Y130.183 E10.79582
G1 X109.622 Y128.898 E10.85998
G1 X109.729 Y128.089 E10.9007
G1 X109.988 Y126.933 E10.9598
G1 X110.177 Y126.305 E10.99252
G1 X110.394 Y125.734 E11.02299
G1 X110.738 Y125.021 E11.06249
G1 X111.088 Y124.431 E11.09671
G1 X111.583 Y123.583 E11.1457
G1 X111.922 Y123.081 E11.17592
G1 X112.169 Y122.79 E11.19496
G1 X112.944 Y121.947 E11.25209
G0 F3600 X113.238 Y122.217
G1 F1650 X113.755 Y121.742 E11.28712
G1 X114.626 Y121.066 E11.34213
G1 X115.176 Y120.704 E11.37498
G1 X116.03 Y120.234 E11.42361
G1 X116.58 Y119.982 E11.45379
G1 X117.497 Y119.638 E11.50266
G1 X117.994 Y119.485 E11.5286
G1 X118.654 Y119.327 E11.56246
G1 X119.197 Y119.235 E11.58993
G1 X120.225 Y119.128 E11.6415
G1 X120.659 Y119.105 E11.66318
G1 X133.879 Y119.102 E12.32273
G1 X134.457 Y119.142 E12.35163
G1 X135.024 Y119.261 E12.38054
G1 X135.335 Y119.373 E12.39703
G1 X135.842 Y119.215 E12.42352
G1 X136.414 Y119.12 E12.45245
G1 X136.813 Y119.101 E12.47238
G1 X138.788 Y119.101 E12.57091
G1 X139.366 Y119.141 E12.59982
G1 X139.933 Y119.26 E12.62872
G1 X140.046 Y119.301 E12.63472
G1 X141.642 Y119.3 E12.71435
G1 X142.054 Y119.186 E12.73567
G1 X142.897 Y119.1 E12.77795
G1 X143.756 Y119.1 E12.8208
G1 X144.334 Y119.14 E12.84971
G1 X144.901 Y119.259 E12.87861
G1 X145.446 Y119.455 E12.90751
G1 X145.959 Y119.724 E12.93641
G1 X146.43 Y120.061 E12.9653
G1 X146.726 Y120.33 E12.98526
G1 X146.877 Y120.481 E12.99591
G1 X147.257 Y120.918 E13.0248
G1 X147.574 Y121.403 E13.05371
G1 X147.821 Y121.927 E13.08261
G1 X147.993 Y122.48 E13.1115
G1 X148.088 Y123.052 E13.14043
G1 X148.107 Y123.449 E13.16026
G1 X148.108 Y125.547 E13.26493
G1 X148.068 Y126.125 E13.29383
G1 X147.949 Y126.692 E13.32274
G1 X147.754 Y127.237 E13.35162
G1 X147.485 Y127.75 E13.38052
G1 X147.148 Y128.222 E13.40945
G1 X146.878 Y128.519 E13.42948
G1 X146.727 Y128.67 E13.44013
G1 X146.29 Y129.05 E13.46902
G1 X145.805 Y129.367 E13.49793
G1 X145.281 Y129.614 E13.52683
G1 X144.912 Y129.729 E13.54611
G1 X144.491 Y129.897 E13.56873
G1 X144.234 Y129.961 E13.58194
G1 X144.701 Y130.059 E13.60575
G1 X145.246 Y130.255 E13.63464
G1 X145.759 Y130.524 E13.66354
G1 X146.23 Y130.861 E13.69243
G1 X146.526 Y131.13 E13.71239
G1 X146.877 Y131.481 E13.73715
G1 X147.257 Y131.918 E13.76605
G1 X147.574 Y132.403 E13.79495
G1 X147.821 Y132.927 E13.82385
G1 X147.993 Y133.48 E13.85275
G1 X148.088 Y134.052 E13.88167
G1 X148.107 Y134.449 E13.9015
G1 X148.108 Y136.547 E14.00617
G1 X148.068 Y137.125 E14.03508
G1 X147.949 Y137.692 E14.06398
G1 X147.754 Y138.237 E14.09286
G1 X147.485 Y138.75 E14.12176
G1 X147.148 Y139.222 E14.15069
G1 X146.878 Y139.519 E14.17072
G1 X146.727 Y139.67 E14.18137
G1 X146.29 Y140.05 E14.21026
G1 X145.805 Y140.367 E14.23917
G1 X145.281 Y140.614 E14.26807
G1 X144.728 Y140.786 E14.29697
G1 X144.156 Y140.881 E14.32589
G1 X143.757 Y140.9 E14.34582
G1 X142.898 Y140.9 E14.38868
G1 X142.32 Y140.86 E14.41758
G1 X141.753 Y140.741 E14.44649
G1 X141.639 Y140.7 E14.45253
G1 X140.063 Y140.7 E14.53116
G1 X139.525 Y140.835 E14.55883
G1 X138.789 Y140.9 E14.59569
G1 X136.814 Y140.9 E14.69423
G1 X136.236 Y140.86 E14.72313
G1 X135.669 Y140.741 E14.75204
G1 X135.346 Y140.625 E14.76916
G1 X135.213 Y140.68 E14.77634
G1 X134.653 Y140.827 E14.80522
G1 X133.862 Y140.9 E14.84486
G1 X120.211 Y140.866 E15.52591
G1 X119.469 Y140.798 E15.56308
G1 X118.343 Y140.593 E15.62018
G1 X117.675 Y140.414 E15.65468
G1 X116.656 Y140.048 E15.7087
G1 X115.907 Y139.692 E15.75008
G1 X114.562 Y138.881 E15.82843
G1 X113.873 Y138.361 E15.8715
G1 X113.044 Y137.591 E15.92795
G1 X112.565 Y137.064 E15.96348
G1 X111.891 Y136.182 E16.01886
G1 X111.519 Y135.602 E16.05323
G1 X110.964 Y134.557 E16.11226
G1 X110.64 Y133.759 E16.15523
G1 X110.217 Y132.304 E16.23083
G1 X110.078 Y131.615 E16.2659
G1 X109.991 Y130.863 E16.30366
G1 X109.967 Y130.2 E16.33676
G1 X110.022 Y128.915 E16.40093
G1 X110.12 Y128.177 E16.43807
G1 X110.379 Y127.021 E16.49718
G1 X110.551 Y126.447 E16.52707
G1 X110.768 Y125.876 E16.55755
G1 X111.082 Y125.225 E16.5936
G1 X111.432 Y124.635 E16.62783
G1 X111.928 Y123.785 E16.67693
G1 X112.254 Y123.306 E16.70583
G1 X112.463 Y123.06 E16.72194
G1 X113.238 Y122.217 E16.77907
G0 F3600 X113.533 Y122.488
G1 F1650 X114 Y122.058 E16.81074
G1 X114.871 Y121.382 E16.86575
G1 X115.369 Y121.055 E16.89547
G1 X116.223 Y120.585 E16.9441
G1 X116.72 Y120.356 E16.9714
G1 X117.637 Y120.012 E17.02026
G1 X118.087 Y119.874 E17.04375
G1 X118.747 Y119.716 E17.07761
G1 X119.239 Y119.632 E17.10251
G1 X120.267 Y119.525 E17.15407
G1 X120.659 Y119.505 E17.17365
G1 X133.879 Y119.502 E17.8332
G1 X134.429 Y119.542 E17.86071
G1 X134.967 Y119.661 E17.8882
G1 X135.346 Y119.805 E17.90843
G1 X135.51 Y119.731 E17.91741
G1 X136.04 Y119.58 E17.9449
G1 X136.813 Y119.501 E17.98367
G1 X138.788 Y119.501 E18.0822
G1 X139.338 Y119.541 E18.10971
G1 X139.876 Y119.66 E18.1372
G1 X139.983 Y119.701 E18.14292
G1 X141.706 Y119.7 E18.22888
G1 X141.86 Y119.644 E18.23705
G1 X142.399 Y119.533 E18.26451
G1 X142.897 Y119.5 E18.28941
G1 X143.756 Y119.5 E18.33227
G1 X144.306 Y119.54 E18.35978
G1 X144.844 Y119.659 E18.38727
G1 X145.359 Y119.855 E18.41476
G1 X145.84 Y120.123 E18.44223
G1 X146.443 Y120.613 E18.48099
G1 X146.594 Y120.764 E18.49165
G1 X146.954 Y121.181 E18.51913
G1 X147.251 Y121.645 E18.54662
G1 X147.477 Y122.148 E18.57413
G1 X147.628 Y122.678 E18.60162
G1 X147.707 Y123.449 E18.64029
G1 X147.708 Y125.547 E18.74496
G1 X147.668 Y126.097 E18.77247
G1 X147.55 Y126.635 E18.79995
G1 X147.354 Y127.15 E18.82744
G1 X147.086 Y127.632 E18.85496
G1 X146.595 Y128.236 E18.89379
G1 X146.444 Y128.387 E18.90444
G1 X146.027 Y128.747 E18.93193
G1 X145.563 Y129.044 E18.95941
G1 X145.06 Y129.27 E18.98692
G1 X144.806 Y129.342 E19.0001
G1 X144.317 Y129.533 E19.02629
G1 X143.78 Y129.656 E19.05377
G1 X143.202 Y129.7 E19.08269
G1 X142.698 Y129.7 E19.10784
G1 X142.148 Y129.66 E19.13535
G1 X141.61 Y129.541 E19.16284
G1 X141.095 Y129.345 E19.19033
G1 X141.014 Y129.3 E19.19495
G1 X140.682 Y129.3 E19.21152
G1 X140.2 Y129.502 E19.23759
G1 X139.667 Y129.639 E19.26505
G1 X138.989 Y129.7 E19.29901
G1 X138.504 Y129.7 E19.3232
G1 X137.954 Y129.66 E19.35072
G1 X137.416 Y129.541 E19.37821
G1 X137.308 Y129.5 E19.38397
G1 X136.813 Y129.5 E19.40866
G1 X136.263 Y129.46 E19.43618
G1 X135.725 Y129.341 E19.46367
G1 X135.35 Y129.198 E19.48369
G1 X134.854 Y129.371 E19.5099
G1 X134.313 Y129.474 E19.53737
G1 X133.872 Y129.5 E19.55941
G1 X131.333 Y129.5 E19.68608
G1 X131.343 Y129.739 E19.69802
G1 X131.317 Y130.5 E19.73601
G1 X133.88 Y130.5 E19.86387
G1 X134.43 Y130.54 E19.89139
G1 X134.968 Y130.659 E19.91888
G1 X135.346 Y130.803 E19.93906
G1 X135.509 Y130.73 E19.94797
G1 X136.039 Y130.579 E19.97546
G1 X136.812 Y130.5 E20.01423
G1 X137.307 Y130.5 E20.03892
G1 X137.449 Y130.448 E20.04647
G1 X137.988 Y130.334 E20.07395
G1 X138.498 Y130.3 E20.09945
G1 X138.988 Y130.3 E20.1239
G1 X139.538 Y130.34 E20.15141
G1 X140.076 Y130.459 E20.1789
G1 X140.591 Y130.655 E20.20639
G1 X140.672 Y130.7 E20.21102
G1 X141.004 Y130.7 E20.22758
G1 X141.486 Y130.498 E20.25365
G1 X142.019 Y130.361 E20.28111
G1 X142.697 Y130.3 E20.31507
G1 X143.556 Y130.3 E20.35793
G1 X144.106 Y130.34 E20.38544
G1 X144.644 Y130.459 E20.41293
G1 X145.159 Y130.655 E20.44042
G1 X145.64 Y130.923 E20.46789
G1 X146.243 Y131.413 E20.50665
G1 X146.594 Y131.764 E20.53142
G1 X146.954 Y132.181 E20.5589
G1 X147.251 Y132.645 E20.58639
G1 X147.477 Y133.148 E20.6139
G1 X147.628 Y133.678 E20.64139
G1 X147.707 Y134.449 E20.68006
G1 X147.708 Y136.547 E20.78473
G1 X147.668 Y137.097 E20.81224
G1 X147.55 Y137.635 E20.83972
G1 X147.354 Y138.15 E20.86721
G1 X147.086 Y138.632 E20.89473
G1 X146.595 Y139.236 E20.93356
G1 X146.444 Y139.387 E20.94422
G1 X146.027 Y139.747 E20.9717
G1 X145.563 Y140.044 E20.99919
G1 X145.06 Y140.27 E21.0267
G1 X144.53 Y140.421 E21.05419
G1 X143.757 Y140.5 E21.09296
G1 X142.898 Y140.5 E21.13581
G1 X142.348 Y140.46 E21.16332
G1 X141.81 Y140.341 E21.19081
G1 X141.702 Y140.3 E21.19658
G1 X139.974 Y140.3 E21.28279
G1 X139.704 Y140.388 E21.29696
G1 X139.162 Y140.482 E21.3244
G1 X138.789 Y140.5 E21.34303
G1 X136.814 Y140.5 E21.44156
G1 X136.264 Y140.46 E21.46908
G1 X135.726 Y140.341 E21.49657
G1 X135.351 Y140.198 E21.51659
G1 X134.854 Y140.371 E21.54284
G1 X134.313 Y140.474 E21.57032
G1 X133.863 Y140.5 E21.59281
