;FLAVOR:Marlin
;TIME:1419
;Filament used: 1.32731m
;Layer height: 0.2
;Generated with Cura_SteamEngine 3.0.4
M190 S45
M104 S205
M109 S205
M82 ; absolute extrusion mode
;Basic settings: Layer height: 0.2 Walls: 2 Fill: {fill_density}
G21        			;metric values
G90        			;absolute positioning
M82        			;set extruder to absolute mode
M107       			;start with the fan off
T0			;set initial extruder
G28 X0 Y0  			;move X/Y to min endstops
G28 Z0     			;move Z to min endstops
G1 Z15.0 F12000                	;move the platform down 15mm
G92 E0             		;zero the extruded length
G1 F300 E30             	;extrude 30mm of feed stock
G92 E0                  	;zero the extruded length again
G1 F6000 E-1		;retract a bit the filament to allow cut
G92 E0			;zero the extruded length
G4 S3			;wait 3 seconds for extruded filament to cool down
G1 Y10 F7000		;exit from cleaning bay to cut the filament
G1 F12000
M117 Printing...
;LAYER_COUNT:30
;LAYER:0
M107
G0 F3600 X116.303 Y113.655 Z0.3
;TYPE:SKIRT
G1 F1650 X116.612 Y113.435 E0.01892
G1 X116.959 Y113.283 E0.03782
G1 X117.5 Y113.2 E0.06513
G1 X142.5 Y113.2 E1.31239
G1 X142.877 Y113.24 E1.3313
G1 X143.237 Y113.358 E1.3502
G1 X143.564 Y113.548 E1.36907
G1 X143.845 Y113.803 E1.388
G1 X144.065 Y114.112 E1.40692
G1 X144.217 Y114.459 E1.42582
G1 X144.3 Y115 E1.45313
G1 X144.3 Y121 E1.75247
G1 X144.26 Y121.377 E1.77139
G1 X144.142 Y121.737 E1.79029
G1 X143.952 Y122.064 E1.80915
G1 X143.697 Y122.345 E1.82809
G1 X143.388 Y122.565 E1.84701
G1 X143.041 Y122.717 E1.86591
G1 X142.5 Y122.8 E1.89322
G1 X117.5 Y122.8 E3.14047
G1 X117.123 Y122.76 E3.15939
G1 X116.763 Y122.642 E3.17829
G1 X116.436 Y122.452 E3.19715
G1 X116.155 Y122.197 E3.21608
G1 X115.935 Y121.888 E3.23501
G1 X115.783 Y121.541 E3.25391
G1 X115.7 Y121 E3.28122
G1 X115.7 Y115 E3.58056
G1 X115.74 Y114.623 E3.59947
G1 X115.858 Y114.263 E3.61837
G1 X116.048 Y113.936 E3.63724
G1 X116.303 Y113.655 E3.65617
G0 F3600 X116.693 Y113.856
G1 F1650 X116.987 Y113.697 E3.67285
G1 X117.311 Y113.613 E3.68954
G1 X117.5 Y113.6 E3.699
G1 X142.5 Y113.6 E4.94625
G1 X142.832 Y113.64 E4.96293
G1 X143.144 Y113.757 E4.97956
G1 X143.421 Y113.945 E4.99626
G1 X143.644 Y114.193 E5.0129
G1 X143.803 Y114.487 E5.02958
G1 X143.887 Y114.811 E5.04627
G1 X143.9 Y115 E5.05573
G1 X143.9 Y121 E5.35507
G1 X143.86 Y121.332 E5.37175
G1 X143.743 Y121.644 E5.38837
G1 X143.555 Y121.921 E5.40508
G1 X143.307 Y122.144 E5.42172
G1 X143.013 Y122.303 E5.43839
G1 X142.689 Y122.387 E5.45509
G1 X142.5 Y122.4 E5.46454
G1 X117.5 Y122.4 E6.7118
G1 X117.168 Y122.36 E6.72848
G1 X116.856 Y122.243 E6.7451
G1 X116.579 Y122.055 E6.76181
G1 X116.356 Y121.807 E6.77845
G1 X116.197 Y121.513 E6.79512
G1 X116.113 Y121.189 E6.81182
G1 X116.1 Y121 E6.82127
G1 X116.1 Y115 E7.12061
G1 X116.14 Y114.668 E7.1373
G1 X116.257 Y114.356 E7.15392
G1 X116.445 Y114.079 E7.17062
G1 X116.693 Y113.856 E7.18726
G0 F3600 X116.839 Y114.249
G1 F1650 X117.075 Y114.095 E7.20132
G1 X117.345 Y114.012 E7.21541
G1 X117.5 Y114 E7.22317
G1 X142.5 Y114 E8.47042
G1 X142.779 Y114.04 E8.48449
G1 X143.036 Y114.156 E8.49855
G1 X143.251 Y114.339 E8.51264
G1 X143.405 Y114.575 E8.5267
G1 X143.488 Y114.845 E8.54079
G1 X143.5 Y115 E8.54855
G1 X143.5 Y121 E8.84789
G1 X143.46 Y121.279 E8.86195
G1 X143.344 Y121.536 E8.87602
G1 X143.161 Y121.751 E8.8901
G1 X142.925 Y121.905 E8.90416
G1 X142.655 Y121.988 E8.91825
G1 X142.5 Y122 E8.92601
G1 X117.5 Y122 E10.17326
G1 X117.221 Y121.96 E10.18733
G1 X116.964 Y121.844 E10.20139
G1 X116.749 Y121.661 E10.21548
G1 X116.595 Y121.425 E10.22954
G1 X116.512 Y121.155 E10.24363
G1 X116.5 Y121 E10.25139
G1 X116.5 Y115 E10.55073
G1 X116.54 Y114.721 E10.56479
G1 X116.656 Y114.464 E10.57886
G1 X116.839 Y114.249 E10.59294
G0 F3600 X117.053 Y114.599
G1 F1650 X117.226 Y114.466 E10.60383
G1 X117.5 Y114.4 E10.61789
G1 X142.5 Y114.4 E11.86515
G1 X142.715 Y114.44 E11.87606
G1 X142.901 Y114.553 E11.88691
G1 X143.034 Y114.726 E11.8978
G1 X143.1 Y115 E11.91186
G1 X143.1 Y121 E12.2112
G1 X143.06 Y121.215 E12.22211
G1 X142.947 Y121.401 E12.23297
G1 X142.774 Y121.534 E12.24386
G1 X142.5 Y121.6 E12.25792
G1 X117.5 Y121.6 E13.50517
G1 X117.285 Y121.56 E13.51609
G1 X117.099 Y121.447 E13.52694
G1 X116.966 Y121.274 E13.53783
G1 X116.9 Y121 E13.55189
G1 X116.9 Y115 E13.85123
G1 X116.94 Y114.785 E13.86214
G1 X117.053 Y114.599 E13.873
G0 F3600 X117.339 Y114.881
G1 F1650 X117.5 Y114.8 E13.88199
G1 X142.5 Y114.8 E15.12925
G1 X142.619 Y114.839 E15.13549
G1 X142.7 Y115 E15.14449
G1 X142.7 Y121 E15.44383
G1 X142.661 Y121.119 E15.45007
G1 X142.5 Y121.2 E15.45907
G1 X117.5 Y121.2 E16.70632
G1 X117.381 Y121.161 E16.71257
G1 X117.3 Y121 E16.72156
G1 X117.3 Y115 E17.0209
G1 X117.339 Y114.881 E17.02715
G1 F2400 E16.52715
G0 F3600 X116.835 Y114.881
G0 X116.847 Y121.653
G0 X117.5 Y125.2
G1 F2400 E17.02715
G1 F1650 X142.5 Y125.2 E18.2744
G1 X142.877 Y125.24 E18.29332
G1 X143.237 Y125.358 E18.31222
G1 X143.564 Y125.548 E18.33109
G1 X143.845 Y125.803 E18.35002
G1 X144.065 Y126.112 E18.36894
G1 X144.217 Y126.459 E18.38784
G1 X144.3 Y127 E18.41515
G1 X144.3 Y133 E18.71449
G1 X144.26 Y133.377 E18.7334
G1 X144.142 Y133.737 E18.75231
G1 X143.952 Y134.064 E18.77117
G1 X143.697 Y134.345 E18.7901
G1 X143.388 Y134.565 E18.80903
G1 X143.041 Y134.717 E18.82793
G1 X142.5 Y134.8 E18.85524
G1 X117.5 Y134.8 E20.10249
G1 X117.123 Y134.76 E20.1214
G1 X116.763 Y134.642 E20.14031
G1 X116.436 Y134.452 E20.15917
G1 X116.155 Y134.197 E20.1781
G1 X115.935 Y133.888 E20.19703
G1 X115.783 Y133.541 E20.21593
G1 X115.7 Y133 E20.24323
G1 X115.7 Y127 E20.54258
G1 X115.74 Y126.623 E20.56149
G1 X115.858 Y126.263 E20.58039
G1 X116.048 Y125.936 E20.59926
G1 X116.303 Y125.655 E20.61819
G1 X116.612 Y125.435 E20.63711
G1 X116.959 Y125.283 E20.65601
G1 X117.5 Y125.2 E20.68332
G0 F3600 X117.311 Y125.613
G1 F1650 X117.5 Y125.6 E20.69277
G1 X142.5 Y125.6 E21.94003
G1 X142.832 Y125.64 E21.95671
G1 X143.144 Y125.757 E21.97333
G1 X143.421 Y125.945 E21.99004
G1 X143.644 Y126.193 E22.00668
G1 X143.803 Y126.487 E22.02335
G1 X143.887 Y126.811 E22.04005
G1 X143.9 Y127 E22.0495
G1 X143.9 Y133 E22.34884
G1 X143.86 Y133.332 E22.36553
G1 X143.743 Y133.644 E22.38215
G1 X143.555 Y133.921 E22.39885
G1 X143.307 Y134.144 E22.41549
G1 X143.013 Y134.303 E22.43217
G1 X142.689 Y134.387 E22.44887
G1 X142.5 Y134.4 E22.45832
G1 X117.5 Y134.4 E23.70557
G1 X117.168 Y134.36 E23.72226
G1 X116.856 Y134.243 E23.73888
G1 X116.579 Y134.055 E23.75558
G1 X116.356 Y133.807 E23.77222
G1 X116.197 Y133.513 E23.7889
G1 X116.113 Y133.189 E23.80559
G1 X116.1 Y133 E23.81505
G1 X116.1 Y127 E24.11439
G1 X116.14 Y126.668 E24.13107
G1 X116.257 Y126.356 E24.1477
G1 X116.445 Y126.079 E24.1644
G1 X116.693 Y125.856 E24.18104
G1 X116.987 Y125.697 E24.19771
G1 X117.311 Y125.613 E24.21441
G0 F3600 X117.345 Y126.012
G1 F1650 X117.5 Y126 E24.22217
G1 X142.5 Y126 E25.46942
G1 X142.779 Y126.04 E25.48348
G1 X143.036 Y126.156 E25.49755
G1 X143.251 Y126.339 E25.51164
G1 X143.405 Y126.575 E25.5257
G1 X143.488 Y126.845 E25.53979
G1 X143.5 Y127 E25.54754
G1 X143.5 Y133 E25.84689
G1 X143.46 Y133.279 E25.86095
G1 X143.344 Y133.536 E25.87501
G1 X143.161 Y133.751 E25.8891
G1 X142.925 Y133.905 E25.90316
G1 X142.655 Y133.988 E25.91725
G1 X142.5 Y134 E25.92501
G1 X117.5 Y134 E27.17226
G1 X117.221 Y133.96 E27.18632
G1 X116.964 Y133.844 E27.20039
G1 X116.749 Y133.661 E27.21448
G1 X116.595 Y133.425 E27.22854
G1 X116.512 Y133.155 E27.24263
G1 X116.5 Y133 E27.25039
G1 X116.5 Y127 E27.54973
G1 X116.54 Y126.721 E27.56379
G1 X116.656 Y126.464 E27.57786
G1 X116.839 Y126.249 E27.59194
G1 X117.075 Y126.095 E27.606
G1 X117.345 Y126.012 E27.62009
G0 F3600 X117.5 Y126.4
G1 F1650 X142.5 Y126.4 E28.86735
G1 X142.715 Y126.44 E28.87826
G1 X142.901 Y126.553 E28.88912
G1 X143.034 Y126.726 E28.9
G1 X143.1 Y127 E28.91406
G1 X143.1 Y133 E29.21341
G1 X143.06 Y133.215 E29.22432
G1 X142.947 Y133.401 E29.23517
G1 X142.774 Y133.534 E29.24606
G1 X142.5 Y133.6 E29.26012
G1 X117.5 Y133.6 E30.50738
G1 X117.285 Y133.56 E30.51829
G1 X117.099 Y133.447 E30.52915
G1 X116.966 Y133.274 E30.54003
G1 X116.9 Y133 E30.55409
G1 X116.9 Y127 E30.85343
G1 X116.94 Y126.785 E30.86434
G1 X117.053 Y126.599 E30.8752
G1 X117.226 Y126.466 E30.88609
G1 X117.5 Y126.4 E30.90015
G0 F3600 X117.5 Y126.8
G1 F1650 X142.5 Y126.8 E32.14741
G1 X142.619 Y126.839 E32.15365
G1 X142.7 Y127 E32.16264
G1 X142.7 Y133 E32.46199
G1 X142.661 Y133.119 E32.46823
G1 X142.5 Y133.2 E32.47722
G1 X117.5 Y133.2 E33.72448
G1 X117.381 Y133.161 E33.73073
G1 X117.3 Y133 E33.73972
G1 X117.3 Y127 E34.03906
G1 X117.339 Y126.881 E34.04531
G1 X117.5 Y126.8 E34.0543
G1 F2400 E33.5543
G0 F3600 X116.835 Y126.8
G0 X116.847 Y133.653
G0 X117.5 Y137.2
G1 F2400 E34.0543
G1 F1650 X142.5 Y137.2 E35.30155
G1 X142.877 Y137.24 E35.32047
G1 X143.237 Y137.358 E35.33937
G1 X143.564 Y137.548 E35.35824
G1 X143.845 Y137.803 E35.37717
G1 X144.065 Y138.112 E35.39609
G1 X144.217 Y138.459 E35.41499
G1 X144.3 Y139 E35.4423
G1 X144.3 Y145 E35.74164
G1 X144.26 Y145.377 E35.76055
G1 X144.142 Y145.737 E35.77946
G1 X143.952 Y146.064 E35.79832
G1 X143.697 Y146.345 E35.81725
G1 X143.388 Y146.565 E35.83618
G1 X143.041 Y146.717 E35.85508
G1 X142.5 Y146.8 E35.88238
G1 X117.5 Y146.8 E37.12964
G1 X117.123 Y146.76 E37.14855
G1 X116.763 Y146.642 E37.16745
G1 X116.436 Y146.452 E37.18632
G1 X116.155 Y146.197 E37.20525
G1 X115.935 Y145.888 E37.22418
G1 X115.783 Y145.541 E37.24308
G1 X115.7 Y145 E37.27038
G1 X115.7 Y139 E37.56973
G1 X115.74 Y138.623 E37.58864
G1 X115.858 Y138.263 E37.60754
G1 X116.048 Y137.936 E37.62641
G1 X116.303 Y137.655 E37.64534
G1 X116.612 Y137.435 E37.66426
G1 X116.959 Y137.283 E37.68316
G1 X117.5 Y137.2 E37.71047
G0 F3600 X117.5 Y137.6
G1 F1650 X142.5 Y137.6 E38.95773
G1 X142.832 Y137.64 E38.97441
G1 X143.144 Y137.757 E38.99103
G1 X143.421 Y137.945 E39.00773
G1 X143.644 Y138.193 E39.02437
G1 X143.803 Y138.487 E39.04105
G1 X143.887 Y138.811 E39.05775
G1 X143.9 Y139 E39.0672
G1 X143.9 Y145 E39.36654
G1 X143.86 Y145.332 E39.38322
G1 X143.743 Y145.644 E39.39985
G1 X143.555 Y145.921 E39.41655
G1 X143.307 Y146.144 E39.43319
G1 X143.013 Y146.303 E39.44986
G1 X142.689 Y146.387 E39.46656
G1 X142.5 Y146.4 E39.47602
G1 X117.5 Y146.4 E40.72327
G1 X117.168 Y146.36 E40.73995
G1 X116.856 Y146.243 E40.75658
G1 X116.579 Y146.055 E40.77328
G1 X116.356 Y145.807 E40.78992
G1 X116.197 Y145.513 E40.80659
G1 X116.113 Y145.189 E40.82329
G1 X116.1 Y145 E40.83274
G1 X116.1 Y139 E41.13209
G1 X116.14 Y138.668 E41.14877
G1 X116.257 Y138.356 E41.16539
G1 X116.445 Y138.079 E41.1821
G1 X116.693 Y137.856 E41.19873
G1 X116.987 Y137.697 E41.21541
G1 X117.311 Y137.613 E41.23211
G1 X117.5 Y137.6 E41.24156
G0 F3600 X117.5 Y138
G1 F1650 X142.5 Y138 E42.48882
G1 X142.779 Y138.04 E42.50288
G1 X143.036 Y138.156 E42.51694
G1 X143.251 Y138.339 E42.53103
G1 X143.405 Y138.575 E42.54509
G1 X143.488 Y138.845 E42.55918
G1 X143.5 Y139 E42.56694
G1 X143.5 Y145 E42.86628
G1 X143.46 Y145.279 E42.88034
G1 X143.344 Y145.536 E42.89441
G1 X143.161 Y145.751 E42.90849
G1 X142.925 Y145.905 E42.92255
G1 X142.655 Y145.988 E42.93665
G1 X142.5 Y146 E42.9444
G1 X117.5 Y146 E44.19166
G1 X117.221 Y145.96 E44.20572
G1 X116.964 Y145.844 E44.21979
G1 X116.749 Y145.661 E44.23387
G1 X116.595 Y145.425 E44.24793
G1 X116.512 Y145.155 E44.26202
G1 X116.5 Y145 E44.26978
G1 X116.5 Y139 E44.56912
G1 X116.54 Y138.721 E44.58318
G1 X116.656 Y138.464 E44.59725
G1 X116.839 Y138.249 E44.61134
G1 X117.075 Y138.095 E44.62539
G1 X117.345 Y138.012 E44.63949
G1 X117.5 Y138 E44.64724
G0 F3600 X117.5 Y138.4
G1 F1650 X142.5 Y138.4 E45.8945
G1 X142.715 Y138.44 E45.90541
G1 X142.901 Y138.553 E45.91627
G1 X143.034 Y138.726 E45.92715
G1 X143.1 Y139 E45.94121
G1 X143.1 Y145 E46.24056
G1 X143.06 Y145.215 E46.25147
G1 X142.947 Y145.401 E46.26232
G1 X142.774 Y145.534 E46.27321
G1 X142.5 Y145.6 E46.28727
G1 X117.5 Y145.6 E47.53453
G1 X117.285 Y145.56 E47.54544
G1 X117.099 Y145.447 E47.55629
G1 X116.966 Y145.274 E47.56718
G1 X116.9 Y145 E47.58124
G1 X116.9 Y139 E47.88058
G1 X116.94 Y138.785 E47.89149
G1 X117.053 Y138.599 E47.90235
G1 X117.226 Y138.466 E47.91324
G1 X117.5 Y138.4 E47.9273
G0 F3600 X117.5 Y138.8
G1 F1650 X142.5 Y138.8 E49.17455
G1 X142.619 Y138.839 E49.1808
G1 X142.7 Y139 E49.18979
G1 X142.7 Y145 E49.48914
G1 X142.661 Y145.119 E49.49538
G1 X142.5 Y145.2 E49.50437
G1 X117.5 Y145.2 E50.75163
G1 X117.381 Y145.161 E50.75788
G1 X117.3 Y145 E50.76687
G1 X117.3 Y139 E51.06621
G1 X117.339 Y138.881 E51.07246
G1 X117.5 Y138.8 E51.08145
G1 F2400 E50.58145
G0 F3600 X116.835 Y138.8
G0 X116.847 Y145.653
G0 X117.5 Y149.2
G1 F2400 E51.08145
G1 F1650 X142.5 Y149.2 E52.3287
G1 X142.877 Y149.24 E52.34762
G1 X143.237 Y149.358 E52.36652
G1 X143.564 Y149.548 E52.38539
G1 X143.845 Y149.803 E52.40432
G1 X144.065 Y150.112 E52.42324
G1 X144.217 Y150.459 E52.44214
G1 X144.3 Y151 E52.46945
G1 X144.3 Y157 E52.76879
G1 X144.26 Y157.377 E52.7877
G1 X144.142 Y157.737 E52.8066
G1 X143.952 Y158.064 E52.82547
G1 X143.697 Y158.345 E52.8444
G1 X143.388 Y158.565 E52.86333
G1 X143.041 Y158.717 E52.88223
G1 X142.5 Y158.8 E52.90953
G1 X117.5 Y158.8 E54.15679
G1 X117.123 Y158.76 E54.1757
G1 X116.763 Y158.642 E54.1946
G1 X116.436 Y158.452 E54.21347
G1 X116.155 Y158.197 E54.2324
G1 X115.935 Y157.888 E54.25133
G1 X115.783 Y157.541 E54.27023
G1 X115.7 Y157 E54.29753
G1 X115.7 Y151 E54.59688
G1 X115.74 Y150.623 E54.61579
G1 X115.858 Y150.263 E54.63469
G1 X116.048 Y149.936 E54.65356
G1 X116.303 Y149.655 E54.67249
G1 X116.612 Y149.435 E54.69141
G1 X116.959 Y149.283 E54.71031
G1 X117.5 Y149.2 E54.73762
G0 F3600 X117.5 Y149.6
G1 F1650 X142.5 Y149.6 E55.98487
G1 X142.832 Y149.64 E56.00156
G1 X143.144 Y149.757 E56.01818
G1 X143.421 Y149.945 E56.03488
G1 X143.644 Y150.193 E56.05152
G1 X143.803 Y150.487 E56.0682
G1 X143.887 Y150.811 E56.0849
G1 X143.9 Y151 E56.09435
G1 X143.9 Y157 E56.39369
G1 X143.86 Y157.332 E56.41037
G1 X143.743 Y157.644 E56.427
G1 X143.555 Y157.921 E56.4437
G1 X143.307 Y158.144 E56.46034
G1 X143.013 Y158.303 E56.47701
G1 X142.689 Y158.387 E56.49371
G1 X142.5 Y158.4 E56.50316
G1 X117.5 Y158.4 E57.75042
G1 X117.168 Y158.36 E57.7671
G1 X116.856 Y158.243 E57.78373
G1 X116.579 Y158.055 E57.80043
G1 X116.356 Y157.807 E57.81707
G1 X116.197 Y157.513 E57.83374
G1 X116.113 Y157.189 E57.85044
G1 X116.1 Y157 E57.85989
G1 X116.1 Y151 E58.15924
G1 X116.14 Y150.668 E58.17592
G1 X116.257 Y150.356 E58.19254
G1 X116.445 Y150.079 E58.20924
G1 X116.693 Y149.856 E58.22588
G1 X116.987 Y149.697 E58.24256
G1 X117.311 Y149.613 E58.25926
G1 X117.5 Y149.6 E58.26871
G0 F3600 X117.5 Y150
G1 F1650 X142.5 Y150 E59.51596
G1 X142.779 Y150.04 E59.53003
G1 X143.036 Y150.156 E59.54409
G1 X143.251 Y150.339 E59.55818
G1 X143.405 Y150.575 E59.57224
G1 X143.488 Y150.845 E59.58633
G1 X143.5 Y151 E59.59409
G1 X143.5 Y157 E59.89343
G1 X143.46 Y157.279 E59.90749
G1 X143.344 Y157.536 E59.92156
G1 X143.161 Y157.751 E59.93564
G1 X142.925 Y157.905 E59.9497
G1 X142.655 Y157.988 E59.9638
G1 X142.5 Y158 E59.97155
G1 X117.5 Y158 E61.21881
G1 X117.221 Y157.96 E61.23287
G1 X116.964 Y157.844 E61.24694
G1 X116.749 Y157.661 E61.26102
G1 X116.595 Y157.425 E61.27508
G1 X116.512 Y157.155 E61.28917
G1 X116.5 Y157 E61.29693
G1 X116.5 Y151 E61.59627
G1 X116.54 Y150.721 E61.61033
G1 X116.656 Y150.464 E61.6244
G1 X116.839 Y150.249 E61.63849
G1 X117.075 Y150.095 E61.65254
G1 X117.345 Y150.012 E61.66664
G1 X117.5 Y150 E61.67439
G0 F3600 X117.5 Y150.4
G1 F1650 X142.5 Y150.4 E62.92165
G1 X142.715 Y150.44 E62.93256
G1 X142.901 Y150.553 E62.94342
G1 X143.034 Y150.726 E62.9543
G1 X143.1 Y151 E62.96836
G1 X143.1 Y157 E63.26771
G1 X143.06 Y157.215 E63.27862
G1 X142.947 Y157.401 E63.28947
G1 X142.774 Y157.534 E63.30036
G1 X142.5 Y157.6 E63.31442
G1 X117.5 Y157.6 E64.56168
G1 X117.285 Y157.56 E64.57259
G1 X117.099 Y157.447 E64.58344
G1 X116.966 Y157.274 E64.59433
G1 X116.9 Y157 E64.60839
G1 X116.9 Y151 E64.90773
G1 X116.94 Y150.785 E64.91864
G1 X117.053 Y150.599 E64.9295
G1 X117.226 Y150.466 E64.94039
G1 X117.5 Y150.4 E64.95445
G0 F3600 X117.5 Y150.8
G1 F1650 X142.5 Y150.8 E66.2017
G1 X142.619 Y150.839 E66.20795
G1 X142.7 Y151 E66.21694
G1 X142.7 Y157 E66.51628
G1 X142.661 Y157.119 E66.52253
G1 X142.5 Y157.2 E66.53152
